X: 31566
T: Painted Crows
R: jig
M: 6/8
K: Dmajor
|:DDD FAd|fed A2F|GBd FAd|AdB AGF|
DDD FAd|fed A2F|GBG Ade|fec d2A:|
f2f afd|e2e aec|dcd fed|BdB AGF|
DDD FAd|fed A2F|GBG Ade|fec d2e|
f2f afd|eae cBA|f2f afd|gab a2g|
f2f afd|e2e aec|dBG Ade|fec d2A|

